dist/images/joy/location2.svg

<svg width="126" height="126" viewBox="0 0 126 126" fill="none" xmlns="http://www.w3.org/2000/svg">
<circle cx="63" cy="63" r="61.5" stroke="#E2704C" stroke-width="3"/>
<g clip-path="url(#clip0)">
<path d="M92.8111 57.3396L86.6506 45.0183C85.7366 43.1902 83.8992 42.0547 81.8557 42.0547H37.3613C34.4052 42.0547 32 44.4598 32 47.416V76.0098C32 78.9659 34.4052 81.3711 37.3613 81.3711H39.4556C40.1937 83.4509 42.18 84.9453 44.5098 84.9453C45.8817 84.9453 47.1346 84.4264 48.084 83.5757C49.0334 84.4269 50.2862 84.9453 51.6582 84.9453C53.988 84.9453 55.9743 83.4509 56.7124 81.3711H75.4361C76.1742 83.4509 78.1605 84.9453 80.4902 84.9453C82.82 84.9453 84.8063 83.4509 85.5444 81.3711H87.6387C90.5948 81.3711 93 78.9659 93 76.0098V58.1387C93 57.8613 92.9353 57.5876 92.8111 57.3396ZM57.0195 59.9258V52.7773H64.2871V59.9258H57.0195ZM46.2969 59.9258V52.7773H53.4453V59.9258H46.2969ZM35.5742 59.9258V52.7773H42.7227V59.9258H35.5742ZM67.8613 52.7773H75.1289V59.9258H67.8613V52.7773ZM78.7031 52.7773H86.5343L89.4258 58.5603V63.5H81.2307L78.7031 60.9725V52.7773ZM37.3613 45.6289H81.8557C82.5366 45.6289 83.149 46.0073 83.4539 46.6169L84.7472 49.2031H35.5742V47.416C35.5742 46.4308 36.3761 45.6289 37.3613 45.6289ZM44.5098 81.3711C43.5245 81.3711 42.7227 80.5692 42.7227 79.584C42.7227 78.5987 43.5245 77.7969 44.5098 77.7969C45.495 77.7969 46.2969 78.5987 46.2969 79.584C46.2969 80.5692 45.495 81.3711 44.5098 81.3711ZM51.6582 81.3711C50.673 81.3711 49.8711 80.5692 49.8711 79.584C49.8711 78.5987 50.673 77.7969 51.6582 77.7969C52.6434 77.7969 53.4453 78.5987 53.4453 79.584C53.4453 80.5692 52.6434 81.3711 51.6582 81.3711ZM80.4902 81.3711C79.505 81.3711 78.7031 80.5692 78.7031 79.584C78.7031 78.5987 79.505 77.7969 80.4902 77.7969C81.4755 77.7969 82.2773 78.5987 82.2773 79.584C82.2773 80.5692 81.4755 81.3711 80.4902 81.3711ZM87.6387 77.7969H85.5444C84.8063 75.717 82.82 74.2227 80.4902 74.2227C78.1605 74.2227 76.1742 75.717 75.4361 77.7969H56.7124C55.9743 75.717 53.988 74.2227 51.6582 74.2227C50.2862 74.2227 49.0334 74.7416 48.084 75.5923C47.1346 74.7416 45.8817 74.2227 44.5098 74.2227C42.18 74.2227 40.1937 75.717 39.4556 77.7969H37.3613C36.3761 77.7969 35.5742 76.995 35.5742 76.0098V70.6484H69.6484C70.6355 70.6484 71.4355 69.8484 71.4355 68.8613C71.4355 67.8742 70.6355 67.0742 69.6484 67.0742H35.5742V63.5H76.1756L79.2267 66.5507C79.5618 66.8862 80.016 67.0742 80.4902 67.0742H89.4258V70.6484H87.6387C86.6516 70.6484 85.8516 71.4484 85.8516 72.4355C85.8516 73.4226 86.6516 74.2227 87.6387 74.2227H89.4258V76.0098C89.4258 76.995 88.6239 77.7969 87.6387 77.7969Z" fill="#373737"/>
</g>
<defs>
<clipPath id="clip0">
<rect width="61" height="61" fill="white" transform="translate(32 33)"/>
</clipPath>
</defs>
</svg>

<svg width="126" height="126" fill="none" xmlns="http://www.w3.org/2000/svg"><circle cx="63" cy="63" r="61.5" stroke="#E2704C" stroke-width="3"/><g clip-path="url(#clip0)"><path d="M92.811 57.34l-6.16-12.322a5.332 5.332 0 00-4.795-2.963H37.36A5.367 5.367 0 0032 47.416V76.01a5.368 5.368 0 005.361 5.361h2.095a5.37 5.37 0 005.054 3.574 5.34 5.34 0 003.574-1.37 5.338 5.338 0 003.574 1.37 5.37 5.37 0 005.054-3.574h18.724a5.37 5.37 0 005.054 3.574 5.37 5.37 0 005.054-3.574h2.095A5.368 5.368 0 0093 76.01V58.139c0-.278-.065-.551-.189-.8zM57.02 59.926v-7.149h7.268v7.149H57.02zm-10.722 0v-7.149h7.148v7.149h-7.148zm-10.723 0v-7.149h7.149v7.149h-7.149zm32.287-7.149h7.268v7.149h-7.27v-7.149zm10.842 0h7.831l2.892 5.783v4.94H81.23l-2.528-2.528v-8.195zM37.361 45.63h44.495c.68 0 1.293.378 1.598.988l1.293 2.586H35.574v-1.787a1.79 1.79 0 011.787-1.787zm7.149 35.74a1.79 1.79 0 01-1.787-1.787 1.79 1.79 0 011.787-1.787 1.79 1.79 0 011.787 1.787 1.79 1.79 0 01-1.787 1.787zm7.148 0a1.79 1.79 0 01-1.787-1.787 1.79 1.79 0 011.787-1.787 1.79 1.79 0 011.787 1.787 1.79 1.79 0 01-1.787 1.787zm28.832 0a1.79 1.79 0 01-1.787-1.787 1.79 1.79 0 011.787-1.787 1.79 1.79 0 011.787 1.787 1.79 1.79 0 01-1.787 1.787zm7.149-3.574h-2.095a5.37 5.37 0 00-5.054-3.574 5.37 5.37 0 00-5.054 3.574H56.712a5.37 5.37 0 00-5.054-3.574 5.34 5.34 0 00-3.574 1.37 5.34 5.34 0 00-3.574-1.37 5.37 5.37 0 00-5.054 3.574H37.36a1.79 1.79 0 01-1.787-1.787v-5.362h34.074a1.787 1.787 0 100-3.574H35.574V63.5h40.602l3.05 3.05c.336.336.79.524 1.264.524h8.936v3.574h-1.787a1.787 1.787 0 100 3.575h1.787v1.787a1.79 1.79 0 01-1.787 1.787z" fill="#373737"/></g><defs><clipPath id="clip0"><path fill="#fff" transform="translate(32 33)" d="M0 0h61v61H0z"/></clipPath></defs></svg>
